X: 1
T: Giga di Roccaforte Mondov\`i   [G]
R: jig
Z: 2014 by John Chambers <jc:trillian.mit.edu>
F: https://www.youtube.com/watch?v=g__17kxpqqI
N: A close relative of Cock of the North
M: 6/8
L: 1/8
K: G
d \
| "G"B2B BAG | G2d e2d | "G"B2B BAG | "D7"A2A A2d \
| "G"B2B BAG | G2d e2d | "G"BcB "D7"ABA | "G"G3- G2 :|
|: d \
| "G"g2d "C"e2d | "G"g2d "C"e2d | "G"B2B BAG | "D7"ABc def \
| "G"g2d "C"e2d | "G"g2d "C"e2d | "G"BcB "D7"ABA | "G"G3- G2 :|

%%sep 1 1 500
%%sep 1 1 500
